content/img/iview-logo.svg

<?xml version="1.0" encoding="UTF-8" standalone="no"?><!DOCTYPE svg PUBLIC "-//W3C//DTD SVG 1.1//EN" "http://www.w3.org/Graphics/SVG/1.1/DTD/svg11.dtd"><svg width="100%" height="100%" viewBox="0 0 502 477" version="1.1" xmlns="http://www.w3.org/2000/svg" xmlns:xlink="http://www.w3.org/1999/xlink" xml:space="preserve" xmlns:serif="http://www.serif.com/" style="fill-rule:evenodd;clip-rule:evenodd;stroke-linejoin:round;stroke-miterlimit:2;"><g><path id="路径" d="M241.7,169.1c-54.2,5 -96.6,50.5 -96.6,106c-0,58.8 47.7,106.4 106.4,106.4c-0,0 217.3,36.1 165.9,-227.7c29.6,49.6 56.6,99.5 56.6,99.5c-0,0 66,113.9 -7.2,183.5c-0,0 -42.5,39.8 -121.1,39.8l-73.9,0c-137.6,-24.2 -149.2,-146 -149.2,-146c-9.5,-156.6 119.1,-162 119.1,-162l-0,0.5Z" style="fill:url(#_Linear1);fill-rule:nonzero;"/><path id="路径1" serif:id="路径" d="M417.4,153.8c51.4,263.8 -165.9,227.7 -165.9,227.7c58.8,0 106.4,-47.6 106.4,-106.4c-0,-9.9 -1.4,-19.5 -3.9,-28.6l-0,-0.1c-1.1,-5.7 -17.6,-84.2 -97.7,-114.7c-36.5,-13.9 -76.8,-12.9 -113.4,0.6c-25.7,9.5 -55.9,26 -78.2,54.4l55.5,-97.7c12.7,-22.3 29.3,-42.1 49.5,-57.9c35.3,-27.4 90.9,-50.4 154.2,-2.9c-0,-0 19,10.8 57.9,68.7c11.2,16.7 23.7,36.8 35.6,56.9Z" style="fill:url(#_Linear2);fill-rule:nonzero;"/><path id="路径2" serif:id="路径" d="M122.6,330.6c-0,0 11.5,121.8 149.2,146l-118.4,0c-30.3,0 -60.3,-7 -87,-21.4c-35.6,-19.3 -71.8,-54.6 -65.2,-117.1c4.8,-45.5 60.6,-146.2 60.6,-146.2l2.9,-5.1l0,-0.1c22.2,-28.5 52.4,-44.9 78.2,-54.4c36.6,-13.5 76.9,-14.5 113.4,-0.6c80.1,30.6 96.6,109.1 97.7,114.7c-12.5,-44.8 -53.7,-77.7 -102.5,-77.7c-3.3,-0 -6.6,0.2 -9.8,0.4l0,-0.4c0,-0.1 -128.6,5.3 -119.1,161.9Z" style="fill:url(#_Linear3);fill-rule:nonzero;"/></g><defs><linearGradient id="_Linear1" x1="0" y1="0" x2="1" y2="0" gradientUnits="userSpaceOnUse" gradientTransform="matrix(379.236,0,0,379.236,122.119,315.224)"><stop offset="0" style="stop-color:#3668e7;stop-opacity:1"/><stop offset="0" style="stop-color:#3668e7;stop-opacity:1"/><stop offset="1" style="stop-color:#44bae1;stop-opacity:1"/></linearGradient><linearGradient id="_Linear2" x1="0" y1="0" x2="1" y2="0" gradientUnits="userSpaceOnUse" gradientTransform="matrix(360.548,0,0,360.548,64.7424,191.981)"><stop offset="0" style="stop-color:#44bce1;stop-opacity:1"/><stop offset="0.37" style="stop-color:#44bae1;stop-opacity:1"/><stop offset="0.55" style="stop-color:#43b2e2;stop-opacity:1"/><stop offset="0.68" style="stop-color:#41a5e2;stop-opacity:1"/><stop offset="0.8" style="stop-color:#3f93e4;stop-opacity:1"/><stop offset="0.9" style="stop-color:#3c7be5;stop-opacity:1"/><stop offset="0.99" style="stop-color:#385ee7;stop-opacity:1"/><stop offset="1" style="stop-color:#385be7;stop-opacity:1"/></linearGradient><linearGradient id="_Linear3" x1="0" y1="0" x2="1" y2="0" gradientUnits="userSpaceOnUse" gradientTransform="matrix(353.553,0,0,353.553,0.468,299.16)"><stop offset="0" style="stop-color:#44bce1;stop-opacity:1"/><stop offset="0.15" style="stop-color:#43b6e1;stop-opacity:1"/><stop offset="0.35" style="stop-color:#41a4e2;stop-opacity:1"/><stop offset="0.58" style="stop-color:#3e88e4;stop-opacity:1"/><stop offset="0.83" style="stop-color:#3960e7;stop-opacity:1"/><stop offset="0.86" style="stop-color:#385be7;stop-opacity:1"/><stop offset="1" style="stop-color:#385be7;stop-opacity:1"/></linearGradient></defs></svg>

<svg viewBox="0 0 502 477" width="502" height="477" xmlns="http://www.w3.org/2000/svg">
    <defs>
        <linearGradient x1="0.00542331488%" y1="50.0074349%" x2="100.011743%" y2="50.0074349%" id="linearGradient-1">
            <stop stop-color="#3668E7" offset="0.3030465%"></stop>
            <stop stop-color="#44BAE1" offset="100%"></stop>
        </linearGradient>
        <linearGradient x1="0.0117592657%" y1="50.0044985%" x2="100.006481%" y2="50.0044985%" id="linearGradient-2">
            <stop stop-color="#44BCE1" offset="0%"></stop>
            <stop stop-color="#44BAE1" offset="36.72%"></stop>
            <stop stop-color="#43B2E2" offset="54.5%"></stop>
            <stop stop-color="#41A5E2" offset="68.19%"></stop>
            <stop stop-color="#3F93E4" offset="79.8%"></stop>
            <stop stop-color="#3C7BE5" offset="89.99%"></stop>
            <stop stop-color="#385EE7" offset="99.21%"></stop>
            <stop stop-color="#385BE7" offset="100%"></stop>
        </linearGradient>
        <linearGradient x1="0.0148416278%" y1="50.0005568%" x2="100.005996%" y2="50.0005568%" id="linearGradient-3">
            <stop stop-color="#44BCE1" offset="0%"></stop>
            <stop stop-color="#43B6E1" offset="14.76%"></stop>
            <stop stop-color="#41A4E2" offset="34.89%"></stop>
            <stop stop-color="#3E88E4" offset="58.12%"></stop>
            <stop stop-color="#3960E7" offset="83.49%"></stop>
            <stop stop-color="#385BE7" offset="86.36%"></stop>
        </linearGradient>
    </defs>
    <g id="页面1" stroke="none" stroke-width="1" fill="none" fill-rule="evenodd">
        <g id="logo" fill-rule="nonzero">
            <g id="logo3-01的副本">
                <g id="图层_2">
                    <g id="XMLID_5_">
                        <g id="编组">
                            <path d="M241.7,169.1 C187.5,174.1 145.1,219.6 145.1,275.1 C145.1,333.9 192.8,381.5 251.5,381.5 C251.5,381.5 468.8,417.6 417.4,153.8 C447,203.4 474,253.3 474,253.3 C474,253.3 540,367.2 466.8,436.8 C466.8,436.8 424.3,476.6 345.7,476.6 C324.1,476.6 298.2,476.6 271.8,476.6 C134.2,452.4 122.6,330.6 122.6,330.6 C113.1,174 241.7,168.6 241.7,168.6 L241.7,169.1 Z" id="路径" fill="url(#linearGradient-1)"></path>
                            <path d="M417.4,153.8 C468.8,417.6 251.5,381.5 251.5,381.5 C310.3,381.5 357.9,333.9 357.9,275.1 C357.9,265.2 356.5,255.6 354,246.5 C354,246.5 354,246.4 354,246.4 C352.9,240.7 336.4,162.2 256.3,131.7 C219.8,117.8 179.5,118.8 142.9,132.3 C117.2,141.8 87,158.3 64.7,186.7 L120.2,89 C132.9,66.7 149.5,46.9 169.7,31.1 C205,3.7 260.6,-19.3 323.9,28.2 C323.9,28.2 342.9,39 381.8,96.9 C393,113.6 405.5,133.7 417.4,153.8 Z" id="路径" fill="url(#linearGradient-2)"></path>
                            <path d="M122.6,330.6 C122.6,330.6 134.1,452.4 271.8,476.6 C226.7,476.6 180.5,476.6 153.4,476.6 C123.1,476.6 93.1,469.6 66.4,455.2 C30.8,435.9 -5.4,400.6 1.2,338.1 C6,292.6 61.8,191.9 61.8,191.9 L64.7,186.8 C64.7,186.8 64.7,186.8 64.7,186.7 C86.9,158.2 117.1,141.8 142.9,132.3 C179.5,118.8 219.8,117.8 256.3,131.7 C336.4,162.3 352.9,240.8 354,246.4 C341.5,201.6 300.3,168.7 251.5,168.7 C248.2,168.7 244.9,168.9 241.7,169.1 L241.7,168.7 C241.7,168.6 113.1,174 122.6,330.6 Z" id="路径" fill="url(#linearGradient-3)"></path>
                        </g>
                    </g>
                </g>
            </g>
        </g>
    </g>
</svg>
